packages/core/src/svgs/tokens/branded/OP.svg

<svg width="24" height="24" viewBox="0 0 24 24" fill="none" xmlns="http://www.w3.org/2000/svg">
<path fill-rule="evenodd" clip-rule="evenodd" d="M3.07332 16.2223C3.79838 16.7407 4.72858 17 5.86391 17C7.23775 17 8.33485 16.6898 9.15539 16.0695C9.97582 15.4399 10.553 14.4908 10.8869 13.2222C11.0873 12.4445 11.259 11.6435 11.4022 10.8195C11.4499 10.5231 11.4737 10.2778 11.4737 10.0834C11.4737 9.43519 11.3068 8.87963 10.9729 8.41669C10.639 7.94443 10.181 7.59259 9.59904 7.36111C9.01702 7.12037 8.35875 7.00001 7.62412 7.00001C4.92416 7.00001 3.2498 8.27316 2.60106 10.8195C2.37208 11.7546 2.19558 12.5556 2.07156 13.2222C2.02385 13.5185 2 13.7686 2 13.9722C2 14.9444 2.35777 15.6946 3.07332 16.2223ZM8.23949 13.1389C7.96549 14.2024 7.20964 14.8947 6.06427 14.8947C4.93116 14.8947 4.54369 14.1284 4.74764 13.1389C4.91937 12.2407 5.09111 11.4815 5.26285 10.8611C5.55875 9.71249 6.25317 9.10527 7.43807 9.10527C8.56612 9.10527 8.93671 9.86072 8.74039 10.8611C8.62586 11.5093 8.45891 12.2685 8.23949 13.1389ZM12.5761 16.9C12.6318 16.9667 12.7106 17 12.8127 17H14.7059C14.7987 17 14.8869 16.9667 14.9703 16.9C15.0538 16.8333 15.1049 16.7476 15.1234 16.6429L15.7215 13.8421H17.6477C18.8634 13.8421 19.8145 13.2524 20.5106 12.7286C21.2159 12.2047 21.6845 11.3953 21.9165 10.3C21.9722 10.0428 22 9.79526 22 9.55714C22 8.72858 21.6845 8.09526 21.0535 7.65716C20.4316 7.21906 19.6057 7.00001 18.5756 7.00001H14.8729C14.7802 7.00001 14.692 7.03332 14.6084 7.10001C14.525 7.16669 14.4739 7.25238 14.4553 7.35717L12.5343 16.6429C12.5157 16.7382 12.5297 16.8238 12.5761 16.9ZM19.3412 10.2714C19.1679 11.0362 18.5008 11.7368 17.7177 11.7368H16.1169L16.6686 9.10527H18.339C18.9077 9.10527 19.3831 9.21738 19.3831 9.84291C19.3831 9.9667 19.3691 10.1095 19.3412 10.2714Z" fill="#FE0420"/>
</svg>

<svg xmlns="http://www.w3.org/2000/svg" width="24" height="24" fill="none" viewBox="0 0 24 24">
    <path fill="#FE0420" fill-rule="evenodd" d="M3.073 16.222Q4.161 17 5.863 17q2.062 0 3.292-.93 1.23-.946 1.732-2.848.3-1.166.515-2.402.072-.445.072-.737 0-.972-.501-1.666-.501-.709-1.374-1.056-.873-.36-1.975-.361-4.05 0-5.023 3.82a45 45 0 0 0-.53 2.402 5 5 0 0 0-.071.75q0 1.459 1.073 2.25M8.24 13.14c-.274 1.063-1.03 1.756-2.175 1.756-1.133 0-1.52-.767-1.316-1.756q.257-1.347.515-2.278c.296-1.149.99-1.756 2.175-1.756 1.128 0 1.499.756 1.302 1.756a33 33 0 0 1-.5 2.278m4.337 3.761a.29.29 0 0 0 .237.1h1.893a.42.42 0 0 0 .264-.1.4.4 0 0 0 .153-.257l.599-2.8h1.926c1.215 0 2.166-.59 2.863-1.114q1.058-.786 1.406-2.429.083-.386.083-.743 0-1.242-.947-1.9Q20.122 7 18.577 7h-3.703a.42.42 0 0 0-.265.1.4.4 0 0 0-.153.257l-1.92 9.286a.35.35 0 0 0 .041.257m6.765-6.629c-.173.765-.84 1.466-1.623 1.466h-1.601l.552-2.632h1.67c.569 0 1.044.112 1.044.738q0 .186-.042.428" clip-rule="evenodd"/>
</svg>
